X: 1394
T: Nellie O'Donovan   #2
O: Cronin
B: O'Neill's 1850 #1394
Z: Bob Safranek, rjs@gsp.org
Z: Compacted via repeats and multiple endings [JC]
M: C|
L: 1/8
K: G
|: B2Bd dcAc | BGGB d2cA |\
[1 B2Bd dcAc | d2cA AGGA :|\
[2 BABd dcAc | dBcA AGG |]
|: e \
|  fgaf gfeg | fdcA Adde |\
[1 fgaf gfeg | fdcA AGG :|\
[2 fefg abag | fdcA AGHGA |]
